X: 160
T: REEL: Trip to Cullenstown (Gmaj)
C: C: Phil Murphy; S: Various
C: Set Leaders: Mars, Tania, Anton
Z: Mars Agliullin ed., Anton Zille ed.; Kenny at The Session
N: https://thesession.org/members/26966/sets/94276
R: Reel
M: 4/4
L: 1/8
Q: 1/2=100
K: Gmaj
|:d2de dBGA|B2BG AGEG|~d3e dBGA|BAAG A2GA|
Bddd e2dB|dedB AGEA|~B3G AGEG|1 DGGF ~G3B:|2 DGGF ~G3A||
|:Bd~d2 edge|d2de dBGA|Bd~d2 e2de|gedB ~A2GA|
Bd~d2 e2dB|dedB AGEA|~B3G AGEG|1 DGGF ~G3A:|2 DGGF ~G3B||

